X: 224
T: Song of a Ghost
C: Teton Sioux band 1911-1914
N: Derived from sioux219.krn
O: South Dakota, U.S.A.
N: Teton Sioux Music by Frances Densmore, 1918
Z: transcribed to **kern format by Craig Sapp
L: 1/8
M: 3/4
Q: 1/4=58
K: E clef=bass
%%linebreak <none>
C C2<C2D [I:setbarnb 1]||  
[M:2/4]D2C2 ||  
[M:3/4]G, G,2<G,2^A, ||  
[M:2/4]G,2F,2 ||  
[M:3/4]E, E,2<F,2A, ||  
[M:2/4]F,2E,2 | 
C,2E,2 ||  
[M:3/4]F, F, F, F,E,2 | 
C,6- ||  
[M:2/4]C,4 | 
C,4- | 
C,3C, | 
G,3G, | 
G,3G, ||  
[M:3/4]G,2>B,2G,2 | 
F,4F,2 | 
F, F,F,2(3A, F, F, | 
E,4E,2 | 
C, C,C,2(3G, G, G, | 
F,6 ||  
[M:2/4]E,2F,2 | 
F,< E, E,/ C,3/ ||  
[M:3/4]C,6 | 
C,2z4 |]  



